SynthDef("blips", {arg out = 0, freq = 25, numharm = 10, att = 0.01, rel = 1, amp = 0.1, pan = 0.5;
	var snd, env;
	env = Env.perc(att, rel, amp).kr(doneAction: 2);
	snd = LeakDC.ar(Mix(Blip.ar([freq, freq*1.01], numharm, env)));
	Out.ar(out, Pan2.ar(snd, pan));
})